images/50131862.svg

<?xml version="1.0" encoding="UTF-8"?>
<svg xmlns="http://www.w3.org/2000/svg" xmlns:xlink="http://www.w3.org/1999/xlink" width="300pt" height="300pt" viewBox="0 0 300 300" version="1.1">
<defs>
<g>
<symbol overflow="visible" id="glyph0-0">
<path style="stroke:none;" d="M 0.796875 2.828125 L 0.796875 -11.28125 L 8.796875 -11.28125 L 8.796875 2.828125 Z M 1.703125 1.9375 L 7.90625 1.9375 L 7.90625 -10.390625 L 1.703125 -10.390625 Z M 1.703125 1.9375 "/>
</symbol>
<symbol overflow="visible" id="glyph0-1">
<path style="stroke:none;" d="M 1.578125 -11.671875 L 8.28125 -11.671875 L 8.28125 -10.34375 L 3.15625 -10.34375 L 3.15625 -6.90625 L 7.78125 -6.90625 L 7.78125 -5.578125 L 3.15625 -5.578125 L 3.15625 0 L 1.578125 0 Z M 1.578125 -11.671875 "/>
</symbol>
<symbol overflow="visible" id="glyph0-2">
<path style="stroke:none;" d="M 1.578125 -11.671875 L 3.703125 -11.671875 L 8.875 -1.90625 L 8.875 -11.671875 L 10.40625 -11.671875 L 10.40625 0 L 8.28125 0 L 3.109375 -9.765625 L 3.109375 0 L 1.578125 0 Z M 1.578125 -11.671875 "/>
</symbol>
<symbol overflow="visible" id="glyph0-3">
<path style="stroke:none;" d="M 1.578125 -11.671875 L 3.15625 -11.671875 L 3.15625 -6.890625 L 8.890625 -6.890625 L 8.890625 -11.671875 L 10.46875 -11.671875 L 10.46875 0 L 8.890625 0 L 8.890625 -5.5625 L 3.15625 -5.5625 L 3.15625 0 L 1.578125 0 Z M 1.578125 -11.671875 "/>
</symbol>
</g>
</defs>
<g id="surface25969">
<rect x="0" y="0" width="300" height="300" style="fill:rgb(100%,100%,100%);fill-opacity:1;stroke:none;"/>
<path style="fill:none;stroke-width:1.2;stroke-linecap:butt;stroke-linejoin:miter;stroke:rgb(20%,80%,80%);stroke-opacity:1;stroke-miterlimit:10;" d="M 42.8125 168.480469 L 60.808594 162.007812 "/>
<path style="fill:none;stroke-width:1.2;stroke-linecap:butt;stroke-linejoin:miter;stroke:rgb(0%,0%,0%);stroke-opacity:1;stroke-miterlimit:10;" d="M 60.808594 162.007812 L 78.800781 155.53125 "/>
<path style=" stroke:none;fill-rule:nonzero;fill:rgb(100%,100%,100%);fill-opacity:1;" d="M 32.8125 158.980469 L 42.8125 158.980469 L 42.8125 177.980469 L 32.8125 177.980469 Z M 32.8125 158.980469 "/>
<g style="fill:rgb(20%,80%,80%);fill-opacity:1;">
  <use xlink:href="#glyph0-1" x="32.8125" y="173.832031"/>
</g>
<path style="fill:none;stroke-width:1.2;stroke-linecap:butt;stroke-linejoin:miter;stroke:rgb(0%,0%,0%);stroke-opacity:1;stroke-miterlimit:10;" d="M 78.800781 155.53125 L 85.582031 117.886719 "/>
<path style="fill:none;stroke-width:1.2;stroke-linecap:butt;stroke-linejoin:miter;stroke:rgb(0%,0%,0%);stroke-opacity:1;stroke-miterlimit:10;" d="M 88.335938 153.363281 L 93.761719 123.246094 "/>
<path style="fill:none;stroke-width:1.2;stroke-linecap:butt;stroke-linejoin:miter;stroke:rgb(0%,0%,0%);stroke-opacity:1;stroke-miterlimit:10;" d="M 108.011719 180.226562 L 78.800781 155.53125 "/>
<path style="fill:none;stroke-width:1.2;stroke-linecap:butt;stroke-linejoin:miter;stroke:rgb(0%,0%,0%);stroke-opacity:1;stroke-miterlimit:10;" d="M 85.582031 117.886719 L 121.574219 104.9375 "/>
<path style="fill:none;stroke-width:1.2;stroke-linecap:butt;stroke-linejoin:miter;stroke:rgb(0%,0%,0%);stroke-opacity:1;stroke-miterlimit:10;" d="M 121.574219 104.9375 L 150.785156 129.628906 "/>
<path style="fill:none;stroke-width:1.2;stroke-linecap:butt;stroke-linejoin:miter;stroke:rgb(0%,0%,0%);stroke-opacity:1;stroke-miterlimit:10;" d="M 118.683594 114.277344 L 142.050781 134.035156 "/>
<path style="fill:none;stroke-width:1.2;stroke-linecap:butt;stroke-linejoin:miter;stroke:rgb(0%,0%,0%);stroke-opacity:1;stroke-miterlimit:10;" d="M 150.785156 129.628906 L 144.003906 167.273438 "/>
<path style="fill:none;stroke-width:1.2;stroke-linecap:butt;stroke-linejoin:miter;stroke:rgb(0%,0%,0%);stroke-opacity:1;stroke-miterlimit:10;" d="M 150.785156 129.628906 L 186.773438 116.679688 "/>
<path style="fill:none;stroke-width:1.2;stroke-linecap:butt;stroke-linejoin:miter;stroke:rgb(0%,0%,0%);stroke-opacity:1;stroke-miterlimit:10;" d="M 144.003906 167.273438 L 108.011719 180.226562 "/>
<path style="fill:none;stroke-width:1.2;stroke-linecap:butt;stroke-linejoin:miter;stroke:rgb(0%,0%,0%);stroke-opacity:1;stroke-miterlimit:10;" d="M 137.359375 160.101562 L 108.566406 170.460938 "/>
<path style="fill:none;stroke-width:1.2;stroke-linecap:butt;stroke-linejoin:miter;stroke:rgb(0%,0%,0%);stroke-opacity:1;stroke-miterlimit:10;" d="M 186.773438 116.679688 L 197.453125 79.949219 "/>
<path style="fill:none;stroke-width:1.2;stroke-linecap:butt;stroke-linejoin:miter;stroke:rgb(0%,0%,0%);stroke-opacity:1;stroke-miterlimit:10;" d="M 218.40625 138.183594 L 186.773438 116.679688 "/>
<path style="fill:none;stroke-width:1.2;stroke-linecap:butt;stroke-linejoin:miter;stroke:rgb(0%,0%,0%);stroke-opacity:1;stroke-miterlimit:10;" d="M 220.304688 128.589844 L 194.996094 111.386719 "/>
<path style="fill:none;stroke-width:1.2;stroke-linecap:butt;stroke-linejoin:miter;stroke:rgb(0%,0%,0%);stroke-opacity:1;stroke-miterlimit:10;" d="M 197.453125 79.949219 L 235.683594 78.753906 "/>
<path style="fill:none;stroke-width:1.2;stroke-linecap:butt;stroke-linejoin:miter;stroke:rgb(0%,0%,0%);stroke-opacity:1;stroke-miterlimit:10;" d="M 201.554688 88.824219 L 232.140625 87.871094 "/>
<path style="fill:none;stroke-width:1.2;stroke-linecap:butt;stroke-linejoin:miter;stroke:rgb(0%,0%,0%);stroke-opacity:1;stroke-miterlimit:10;" d="M 235.683594 78.753906 L 242.160156 96.75 "/>
<path style="fill:none;stroke-width:1.2;stroke-linecap:butt;stroke-linejoin:miter;stroke:rgb(0%,0%,100%);stroke-opacity:1;stroke-miterlimit:10;" d="M 242.160156 96.75 L 248.632812 114.746094 "/>
<path style="fill:none;stroke-width:1.2;stroke-linecap:butt;stroke-linejoin:miter;stroke:rgb(0%,0%,0%);stroke-opacity:1;stroke-miterlimit:10;" d="M 235.683594 78.753906 L 257.1875 47.121094 "/>
<path style="fill:none;stroke-width:1.2;stroke-linecap:butt;stroke-linejoin:miter;stroke:rgb(0%,0%,100%);stroke-opacity:1;stroke-miterlimit:10;" d="M 248.632812 114.746094 L 233.519531 126.464844 "/>
<path style="fill:none;stroke-width:1.2;stroke-linecap:butt;stroke-linejoin:miter;stroke:rgb(0%,0%,0%);stroke-opacity:1;stroke-miterlimit:10;" d="M 233.519531 126.464844 L 218.40625 138.183594 "/>
<path style=" stroke:none;fill-rule:nonzero;fill:rgb(100%,100%,100%);fill-opacity:1;" d="M 236.632812 105.246094 L 260.632812 105.246094 L 260.632812 124.246094 L 236.632812 124.246094 Z M 236.632812 105.246094 "/>
<g style="fill:rgb(0%,0%,100%);fill-opacity:1;">
  <use xlink:href="#glyph0-2" x="236.632812" y="120.097656"/>
  <use xlink:href="#glyph0-3" x="248.601562" y="120.097656"/>
</g>
<path style="fill:none;stroke-width:1.2;stroke-linecap:butt;stroke-linejoin:miter;stroke:rgb(0%,0%,0%);stroke-opacity:1;stroke-miterlimit:10;" d="M 218.40625 138.183594 L 219.601562 176.414062 "/>
<path style="fill:none;stroke-width:1.2;stroke-linecap:butt;stroke-linejoin:miter;stroke:rgb(0%,0%,0%);stroke-opacity:1;stroke-miterlimit:10;" d="M 219.601562 176.414062 L 187.089844 196.566406 "/>
<path style="fill:none;stroke-width:1.2;stroke-linecap:butt;stroke-linejoin:miter;stroke:rgb(0%,0%,0%);stroke-opacity:1;stroke-miterlimit:10;" d="M 221.09375 186.082031 L 195.082031 202.199219 "/>
<path style="fill:none;stroke-width:1.2;stroke-linecap:butt;stroke-linejoin:miter;stroke:rgb(0%,0%,0%);stroke-opacity:1;stroke-miterlimit:10;" d="M 253.308594 194.496094 L 219.601562 176.414062 "/>
<path style="fill:none;stroke-width:1.2;stroke-linecap:butt;stroke-linejoin:miter;stroke:rgb(0%,0%,0%);stroke-opacity:1;stroke-miterlimit:10;" d="M 187.089844 196.566406 L 188.285156 234.796875 "/>
<path style="fill:none;stroke-width:1.2;stroke-linecap:butt;stroke-linejoin:miter;stroke:rgb(0%,0%,0%);stroke-opacity:1;stroke-miterlimit:10;" d="M 188.285156 234.796875 L 205.140625 243.835938 "/>
<path style="fill:none;stroke-width:1.2;stroke-linecap:butt;stroke-linejoin:miter;stroke:rgb(0%,0%,100%);stroke-opacity:1;stroke-miterlimit:10;" d="M 205.140625 243.835938 L 221.992188 252.878906 "/>
<path style="fill:none;stroke-width:1.2;stroke-linecap:butt;stroke-linejoin:miter;stroke:rgb(0%,0%,0%);stroke-opacity:1;stroke-miterlimit:10;" d="M 195.910156 228.675781 L 209.394531 235.90625 "/>
<path style="fill:none;stroke-width:1.2;stroke-linecap:butt;stroke-linejoin:miter;stroke:rgb(0%,0%,100%);stroke-opacity:1;stroke-miterlimit:10;" d="M 209.394531 235.90625 L 222.875 243.140625 "/>
<path style="fill:none;stroke-width:1.2;stroke-linecap:butt;stroke-linejoin:miter;stroke:rgb(0%,0%,100%);stroke-opacity:1;stroke-miterlimit:10;" d="M 221.992188 252.878906 L 238.25 242.800781 "/>
<path style="fill:none;stroke-width:1.2;stroke-linecap:butt;stroke-linejoin:miter;stroke:rgb(0%,0%,0%);stroke-opacity:1;stroke-miterlimit:10;" d="M 238.25 242.800781 L 254.503906 232.726562 "/>
<path style=" stroke:none;fill-rule:nonzero;fill:rgb(100%,100%,100%);fill-opacity:1;" d="M 215.992188 243.378906 L 227.992188 243.378906 L 227.992188 262.378906 L 215.992188 262.378906 Z M 215.992188 243.378906 "/>
<g style="fill:rgb(0%,0%,100%);fill-opacity:1;">
  <use xlink:href="#glyph0-2" x="215.992188" y="258.230469"/>
</g>
<path style="fill:none;stroke-width:1.2;stroke-linecap:butt;stroke-linejoin:miter;stroke:rgb(0%,0%,0%);stroke-opacity:1;stroke-miterlimit:10;" d="M 254.503906 232.726562 L 253.308594 194.496094 "/>
<path style="fill:none;stroke-width:1.2;stroke-linecap:butt;stroke-linejoin:miter;stroke:rgb(0%,0%,0%);stroke-opacity:1;stroke-miterlimit:10;" d="M 245.390625 229.183594 L 244.433594 198.601562 "/>
</g>
</svg>

<svg xmlns="http://www.w3.org/2000/svg" xmlns:xlink="http://www.w3.org/1999/xlink" width="300pt" height="300pt" viewBox="0 0 300 300"><defs><symbol overflow="visible"><path d="M.797 2.828v-14.11h8V2.83zm.906-.89h6.203v-12.33H1.703zm0 0"/></symbol><symbol overflow="visible" id="a"><path d="M1.578-11.672H8.28v1.328H3.157v3.438H7.78v1.328H3.157V0H1.578zm0 0"/></symbol><symbol overflow="visible" id="b"><path d="M1.578-11.672h2.125l5.172 9.766v-9.766h1.53V0H8.282L3.11-9.766V0H1.577zm0 0"/></symbol><symbol overflow="visible" id="c"><path d="M1.578-11.672h1.578v4.78H8.89v-4.78h1.58V0H8.89v-5.563H3.157V0H1.578zm0 0"/></symbol></defs><g><path fill="#fff" d="M0 0h300v300H0z"/><path d="M42.813 168.48l17.996-6.472" stroke-width="1.2" stroke="#3cc" stroke-miterlimit="10" fill="none"/><path d="M60.81 162.008l17.99-6.477" stroke-width="1.2" stroke="#000" stroke-miterlimit="10" fill="none"/><path d="M32.813 158.98h10v19h-10zm0 0" fill="#fff"/><use xlink:href="#a" x="32.813" y="173.832" fill="#3cc"/><path d="M78.8 155.53l6.782-37.643M88.336 153.363l5.426-30.117M108.012 180.227l-29.21-24.696M85.582 117.887l35.992-12.95M121.574 104.938l29.21 24.69M118.684 114.277l23.367 19.758M150.785 129.63l-6.78 37.643M150.785 129.63l35.988-12.95M144.004 167.273l-35.992 12.954M137.36 160.102l-28.794 10.36M186.773 116.68l10.68-36.73M218.406 138.184l-31.633-21.504M220.305 128.59l-25.31-17.203M197.453 79.95l38.23-1.196M201.555 88.824l30.586-.953M235.684 78.754l6.476 17.996" stroke-width="1.2" stroke="#000" stroke-miterlimit="10" fill="none"/><path d="M242.16 96.75l6.473 17.996" stroke-width="1.2" stroke="#00f" stroke-miterlimit="10" fill="none"/><path d="M235.684 78.754l21.504-31.633" stroke-width="1.2" stroke="#000" stroke-miterlimit="10" fill="none"/><path d="M248.633 114.746l-15.113 11.72" stroke-width="1.2" stroke="#00f" stroke-miterlimit="10" fill="none"/><path d="M233.52 126.465l-15.114 11.72" stroke-width="1.2" stroke="#000" stroke-miterlimit="10" fill="none"/><path d="M236.633 105.246h24v19h-24zm0 0" fill="#fff"/><g fill="#00f"><use xlink:href="#b" x="236.633" y="120.098"/><use xlink:href="#c" x="248.602" y="120.098"/></g><path d="M218.406 138.184l1.196 38.23M219.602 176.414l-32.512 20.152M221.094 186.082L195.082 202.2M253.31 194.496L219.6 176.414M187.09 196.566l1.195 38.23M188.285 234.797l16.856 9.04" stroke-width="1.2" stroke="#000" stroke-miterlimit="10" fill="none"/><path d="M205.14 243.836l16.852 9.043" stroke-width="1.2" stroke="#00f" stroke-miterlimit="10" fill="none"/><path d="M195.91 228.676l13.485 7.23" stroke-width="1.2" stroke="#000" stroke-miterlimit="10" fill="none"/><path d="M209.395 235.906l13.48 7.235M221.992 252.88l16.258-10.08" stroke-width="1.2" stroke="#00f" stroke-miterlimit="10" fill="none"/><path d="M238.25 242.8l16.254-10.073" stroke-width="1.2" stroke="#000" stroke-miterlimit="10" fill="none"/><path d="M215.992 243.38h12v19h-12zm0 0" fill="#fff"/><use xlink:href="#b" x="215.992" y="258.23" fill="#00f"/><path d="M254.504 232.727l-1.195-38.23M245.39 229.184l-.956-30.582" stroke-width="1.2" stroke="#000" stroke-miterlimit="10" fill="none"/></g></svg>
